X:1
T:Title
%%score { 1 | 2 }
L:1/8
Q:1/4=100
M:4/4
K:Eb
V:1 treble nm="Grand Piano"
V:2 bass 
V:1
 G2 B2 [DB]2 [DF]2 | [EG]2 [EB]2 [DB]2 [DF]2 | G2 c2 B2 G2 | [EF]2 [CE]2 [DF]4 | %4
w: Robert~Lowry * * *||||
 [EG]2 [EB]2 [DB]2 [DF]2 | [EG]2 [EB]2 [DB]2 [B,DF]2 | [B,EG]2 [_DEB]2 [CEB]2 [CEA]2 | %7
w: |||
 [B,EG]2 [A,DF]2 [G,E]4 | [FA]2 [EG]2 [DF]2 [Ac]2 | [GB]2 [FA]2 [EG]2 [Ge]2 | %10
w: |||
 [Fd]2 [Fc]2 [FB]2 G2 | F2 =A2 [DB]4 | [EG]2 [EB]2 [DB]2 [DF]2 | [EG]2 [EB]2 [DB]2 [B,DF]2 | %14
w: ||||
 [B,EG]2 [_DEB]2 [CEB]2 [CEA]2 | [B,EG]2 [A,DF]2 [G,E]4 |] %16
w: ||
V:2
 [E,B,E]2 [E,G,E]2 [B,,F,]2 [B,,B,]2 | [E,B,]2 [E,G,]2 [B,,F,]2 [B,,B,]2 | %2
 [E,B,E]2 [E,A,E]2 [E,G,E]2 [E,B,E]2 | [C,=A,]2 [C,A,]2 [B,,B,]4 | %4
 [E,B,]2 [E,G,]2 [B,,F,]2 [B,,B,]2 | [E,B,]2 [E,G,]2 [B,,F,]2 B,,2 | E,2 E,2 A,,2 A,,2 | %7
 B,,2 B,,2 E,4 | [B,,B,]2 [B,,B,]2 [B,,B,]2 [B,,B,]2 | [E,B,]2 [E,B,]2 [E,B,]2 [E,B,]2 | %10
 [B,,B,]2 [C,=A,]2 [D,B,]2 [E,B,E]2 | [F,B,D]2 [F,CE]2 [B,,B,]4 | %12
 [E,B,]2 [E,G,]2 [B,,F,]2 [B,,B,]2 | [E,B,]2 [E,G,]2 [B,,F,]2 B,,2 | E,2 E,2 A,,2 A,,2 | %15
 B,,2 B,,2 E,4 |] %16

